X:1
T:E minor Daniel Belknap, 1797
T:Isaac Watts, 1709 (Hymn 96, Book 2) 86. 86. (C. M.)
T:Angola
T:Transcribed from The Harmonist's Companion, 1797.
%%score [ 1 2 3 4 ]
L:1/8
M:4/4
K:G
V:1 treble nm="Treble" snm="Tr."
V:2 treble nm="Counter" snm="C."
V:3 treble-8 nm="Tenor" snm="T."
V:4 bass nm="Bass" snm="B."
V:1
 B4 B2 B2 | B6 B2 | (B3 c d2) B2 | B6 B2 | (B2 A2 G2) B2 | c4 B4 | B8 | %7
w: |||||||
 z4"^And    Je  –  sus   stooped _______  beneath the grave" d4 | dc B^A (d3 e | B3 A G2) B2 | %10
w: And|Je- * sus * stooped~ _|_ _ _ be-|
 c2 B2 B4- | B4 B4 | (B3 c B3 A | G3 A) B2 G2 | c8 | B8 | B8 |] %17
w: neath the grave,|||||||
V:2
 E4 E2 E2 | (G4 F2) F2 | (E3 G F2) E2 | F6 F2 | (E2 F2 E2) E2 | E4 ^D4 | E8 | z8 | z8 | z8 | z8 | %11
w: 1.~Down from the|top * of|earth- * * ly|bliss Re-|bel- * * lious|man was|hurled,|||||
 z4 G4 | G8- | G6 GF | E8 | ^D8 | E8 |] %17
w: To|reach~|_ a *|sink-|ing|world.|
V:3
 B4 G2 E2 | (B2 e2 dc) BA | (G3 ABA) G2 | F6 F2 | (G2 F2 G2) B2 | (A2 G2) F4 | E8 | z8 | z8 | z8 | %10
 z8 | z4 e4 | (d3 e d3 c | B3 A G2) E2 | (c2 B2 A2 G2) | F8 | E8 |] %17
V:4
 E,4 E,2 B,2 | (G,2 E,2 B,,2) ^D,2 | (E,4 D,2) E,2 | B,,6 B,,2 | (E,2 ^D,2 E,2) E,2 | A,,4 B,,4 | %6
 E,8 | z8 | z8 | z8 | z8 | z4 E,4 | (G,8 | G,3 F, E,2) E,2 | A,,8 | B,,8 | E,8 |] %17

